X:205
%%musicspace -10
%%titlespace -15
T:No Man's Jig
M:4/4
L:1/4
K:D
%%stretchlast 1
D/2E/2 | "D"F A A G/2F/2 | "G"G B B2 | "D"F A A G/2F/2 | "A7"G E E2 | 
"D"F A A G/2F/2 | "G"G B B2 | "D"F2 "A7"E2 | "D"D3 :|]
[|: B/2c/2 | "D"d c B A | "G"B/2c/2d "D"A2 | d c B A | "G"B/2c/2d "A7"e2 | 
"D"d c B A | "G"B/2c/2d "A7"A G | "D"F2 "A7"E2 | "D"D3 :|]

%%newpage

